static/images/immudb/features/immutable2.svg

<svg id="Capa_1" enable-background="new 0 0 512 512" height="512" viewBox="0 0 512 512" width="512" xmlns="http://www.w3.org/2000/svg"><g><path d="m256 0-140 256 140 256 4.999-1.767c64.033-22.633 118.938-63.866 158.775-119.243 40.708-56.586 62.226-123.459 62.226-193.387v-133.337z" fill="#93b7c0"/><path d="m30 64.266v133.337c0 69.929 21.518 136.802 62.226 193.388 39.838 55.377 94.742 96.61 158.775 119.243l4.999 1.766v-512z" fill="#acd5df"/><path d="m421.207 218.52c.525-6.928.793-13.904.793-20.918v-88.02l-166-47.203-110 156.141z" fill="#c4f3ff"/><path d="m256 62.379-166 47.204v88.02c0 7.014.268 13.99.793 20.918h165.207z" fill="#fff"/><path d="m256 171.542-100 138.206 100 138.206 6.161-2.775c43.279-19.497 80.938-50.351 108.908-89.228 29.239-40.644 46.378-87.788 50.138-137.431z" fill="#3b88f5"/><path d="m90.793 218.52c3.76 49.643 20.899 96.787 50.139 137.431 27.969 38.877 65.628 69.73 108.907 89.228l6.161 2.775v-276.412z" fill="#28abfa"/></g></svg>

<svg xmlns="http://www.w3.org/2000/svg" height="512" width="512" xmlns:v="https://vecta.io/nano"><path d="M256 0L116 256l140 256 4.999-1.767c64.033-22.633 118.938-63.866 158.775-119.243C460.482 334.404 482 267.531 482 197.603V64.266z" fill="#93b7c0"/><path d="M30 64.266v133.337c0 69.929 21.518 136.802 62.226 193.388 39.838 55.377 94.742 96.61 158.775 119.243L256 512V0z" fill="#acd5df"/><path d="M421.207 218.52c.525-6.928.793-13.904.793-20.918v-88.02L256 62.379 146 218.52z" fill="#c4f3ff"/><path d="M256 62.379L90 109.583v88.02c0 7.014.268 13.99.793 20.918H256z" fill="#fff"/><path d="m256 171.542-100 138.206 100 138.206 6.161-2.775c43.279-19.497 80.938-50.351 108.908-89.228 29.239-40.644 46.378-87.788 50.138-137.431z" fill="#3b88f5"/><path d="M90.793 218.52c3.76 49.643 20.899 96.787 50.139 137.431 27.969 38.877 65.628 69.73 108.907 89.228l6.161 2.775V171.542z" fill="#28abfa"/></svg>
